dist/img/icons/social/vk-footer.svg

<svg width="24" height="24" viewBox="0 0 24 24" fill="none" xmlns="http://www.w3.org/2000/svg">
<path d="M12 24C18.6274 24 24 18.6274 24 12C24 5.37258 18.6274 0 12 0C5.37258 0 0 5.37258 0 12C0 18.6274 5.37258 24 12 24Z" fill="white" fill-opacity="0.21"/>
<path d="M17.5342 15.4295C17.2532 15.469 15.8874 15.4295 15.8163 15.4295C15.4632 15.4331 15.1229 15.2975 14.8689 15.0521C14.58 14.7742 14.3195 14.4679 14.0432 14.179C13.9593 14.0909 13.869 14.0091 13.7732 13.9342C13.5474 13.7621 13.3247 13.8016 13.2189 14.0669C13.1361 14.3544 13.079 14.6487 13.0484 14.9463C13.0435 15.0717 12.989 15.19 12.8969 15.2753C12.8049 15.3605 12.6828 15.4058 12.5574 15.4011C12.371 15.4105 12.1847 15.4153 12 15.4105C11.328 15.4071 10.6663 15.2447 10.0689 14.9369C9.42407 14.5765 8.86196 14.0848 8.41894 13.4937C7.71013 12.5577 7.09755 11.5526 6.59052 10.4937C6.56368 10.44 6.03158 9.30791 6.01894 9.2558C5.98595 9.18162 5.9828 9.09757 6.01015 9.02113C6.03749 8.94468 6.09323 8.88171 6.16579 8.84527C6.26052 8.80896 8.01473 8.84527 8.04315 8.84527C8.17378 8.84403 8.30138 8.88457 8.40734 8.96098C8.51329 9.03739 8.59204 9.14567 8.6321 9.27001C8.95653 10.0971 9.39959 10.8726 9.94736 11.5721C10.0238 11.6664 10.1137 11.7489 10.2142 11.8169C10.2401 11.8419 10.2722 11.8595 10.3072 11.8679C10.3422 11.8764 10.3789 11.8753 10.4133 11.8648C10.4478 11.8544 10.4788 11.8349 10.5032 11.8084C10.5276 11.7819 10.5445 11.7494 10.5521 11.7142C10.6215 11.4859 10.6623 11.2499 10.6737 11.0116C10.6832 10.5379 10.6737 10.2221 10.6468 9.74843C10.6564 9.58701 10.6019 9.42834 10.4952 9.30684C10.3885 9.18535 10.2381 9.11084 10.0768 9.09948C9.93789 9.0758 9.91894 8.96212 10.0153 8.84843C10.2 8.61317 10.4558 8.57527 10.7337 8.56106C11.1537 8.53738 11.5753 8.56106 11.9968 8.56106H12.0884C12.2735 8.5606 12.4582 8.57912 12.6395 8.61633C12.7455 8.63804 12.8417 8.69343 12.9136 8.77423C12.9856 8.85504 13.0296 8.95694 13.0389 9.06475C13.0602 9.18405 13.0697 9.30516 13.0674 9.42633C13.0563 9.94264 13.031 10.459 13.0247 10.9769C13.021 11.1814 13.0395 11.3858 13.08 11.5863C13.1416 11.8611 13.3295 11.9305 13.5221 11.73C13.7621 11.4724 13.9823 11.1968 14.1805 10.9058C14.537 10.3759 14.8306 9.80627 15.0553 9.20843C15.1768 8.90212 15.27 8.83422 15.6 8.83422H17.4616C17.5726 8.83237 17.6834 8.84727 17.79 8.87843C17.8276 8.88847 17.8628 8.90613 17.8933 8.93032C17.9238 8.95452 17.9491 8.98473 17.9674 9.01908C17.9858 9.05343 17.9969 9.09119 18 9.13001C18.0032 9.16883 17.9984 9.20788 17.9858 9.24475C17.8769 9.64085 17.6901 10.0112 17.4363 10.3342C17.0574 10.8695 16.6595 11.3921 16.271 11.9132C16.2219 11.9813 16.1771 12.0525 16.1368 12.1263C15.9916 12.3884 16.0026 12.5369 16.2126 12.7579C16.5505 13.1053 16.9121 13.4321 17.2374 13.789C17.4772 14.049 17.6939 14.3295 17.8847 14.6274C18.1247 15.0126 17.9779 15.3663 17.5342 15.4295Z" fill="white"/>
</svg>

<svg width="24" height="24" fill="none" xmlns="http://www.w3.org/2000/svg"><path d="M12 24c6.627 0 12-5.373 12-12S18.627 0 12 0 0 5.373 0 12s5.373 12 12 12z" fill="#fff" fill-opacity=".21"/><path d="M17.534 15.43c-.28.039-1.647 0-1.718 0a1.344 1.344 0 01-.947-.378c-.289-.278-.55-.584-.826-.873a2.495 2.495 0 00-.27-.245c-.226-.172-.448-.132-.554.133a5.04 5.04 0 00-.17.88.474.474 0 01-.492.454c-.186.01-.372.014-.557.01a4.264 4.264 0 01-1.931-.474 5.283 5.283 0 01-1.65-1.443 17.459 17.459 0 01-1.828-3 50.69 50.69 0 01-.572-1.238.316.316 0 01.147-.41c.095-.037 1.849 0 1.877 0a.613.613 0 01.59.424 9.158 9.158 0 001.314 2.302c.077.094.167.177.267.245a.202.202 0 00.338-.103c.07-.228.11-.464.122-.702.01-.474 0-.79-.027-1.264a.614.614 0 00-.57-.649c-.14-.023-.158-.137-.062-.25.185-.236.44-.274.719-.288.42-.024.841 0 1.263 0h.091c.186 0 .37.018.552.055a.502.502 0 01.399.449c.021.119.03.24.028.361-.01.517-.036 1.033-.042 1.55a2.82 2.82 0 00.055.61c.062.275.25.345.442.144.24-.258.46-.533.659-.824.356-.53.65-1.1.874-1.698.122-.306.215-.374.545-.374h1.862c.11-.002.221.013.328.044a.284.284 0 01.196.367 3.088 3.088 0 01-.55 1.09c-.379.534-.776 1.057-1.165 1.578a1.9 1.9 0 00-.134.213c-.145.262-.134.41.076.632.337.347.7.674 1.024 1.031.24.26.457.54.648.838.24.386.093.74-.35.803z" fill="#fff"/></svg>
